source/img/vacancies/vac-vector-1.svg

<svg width="133" height="124" viewBox="0 0 133 124" fill="none" xmlns="http://www.w3.org/2000/svg">
<g clip-path="url(#clip0)">
<g opacity="0.8">
<path d="M0.5 122.971V119.871H132.5V122.971H0.5Z" fill="black" stroke="#F6F5F6"/>
<path d="M35.8281 120.924V25.5742H38.9844V120.924H35.8281Z" fill="black" stroke="#F6F5F6"/>
<path d="M17.126 61.4742C17.1731 49.5179 18.9156 40.5619 22.2768 34.5906C25.662 28.5768 30.694 25.5742 37.4062 25.5742C44.1185 25.5742 49.1505 28.5768 52.5357 34.5906C55.8969 40.5619 57.6394 49.5179 57.6865 61.4742H54.5303C54.4897 50.6606 53.1274 42.5313 50.3573 37.0686C48.947 34.2876 47.1643 32.1827 44.9926 30.7749C42.8185 29.3655 40.2847 28.6742 37.4062 28.6742C34.5278 28.6742 31.994 29.3655 29.8199 30.7749C27.6482 32.1827 25.8655 34.2876 24.4552 37.0686C21.6851 42.5313 20.3228 50.6606 20.2822 61.4742H17.126Z" fill="black" stroke="#F6F5F6"/>
<path d="M3.71958 59.8928L3.68607 60.4242H4.21859H70.5939H71.1264L71.0929 59.8928C69.9954 42.4875 55.3096 28.6742 37.4062 28.6742C19.5029 28.6742 4.81706 42.4875 3.71958 59.8928ZM72.7344 63.5242H2.07812C1.20485 63.5242 0.5 62.8192 0.5 61.9742C0.5 41.9206 17.0403 25.5742 37.4062 25.5742C57.7722 25.5742 74.3125 41.9206 74.3125 61.9742C74.3125 62.8192 73.6076 63.5242 72.7344 63.5242Z" fill="black" stroke="#F6F5F6"/>
<path d="M102.958 108.03L115.06 119.969L112.822 122.177L101.328 110.819L101.181 110.674H100.976H48.2969V107.574H101.828C102.25 107.574 102.648 107.743 102.958 108.03Z" fill="black" stroke="#F6F5F6"/>
<path d="M49.269 122.166L47.042 119.969L58.8056 108.364L61.0326 110.561L49.269 122.166Z" fill="black" stroke="#F6F5F6"/>
<path d="M67.1161 109.879L49.1221 92.1289L51.349 89.9321L69.3431 107.683L67.1161 109.879Z" fill="black" stroke="#F6F5F6"/>
<path d="M82.1763 99.8266L90.1229 107.666L87.8844 109.874L80.5465 102.616L80.4004 102.471H80.1948H60.7656V99.3711H81.0469C81.4691 99.3711 81.8672 99.5397 82.1763 99.8266Z" fill="black" stroke="#F6F5F6"/>
<path d="M87.7812 21.4768C95.4664 21.6039 99.4316 24.6556 101.434 27.225L101.828 27.7311L102.223 27.225C104.225 24.6556 108.19 21.6039 115.875 21.4768V24.5774C110.785 24.6752 107.686 26.2626 105.838 27.9359C103.993 29.6067 103.434 31.3289 103.36 31.629C103.168 32.2902 102.536 32.7727 101.828 32.7727H101.807C101.097 32.7727 100.47 32.289 100.298 31.615C100.239 31.3756 99.6943 29.6299 97.8176 27.9331C95.9699 26.2625 92.871 24.6752 87.7812 24.5774V21.4768Z" fill="black" stroke="#F6F5F6"/>
<path d="M100.25 32.7727V31.7227H103.406V32.7727H100.25Z" fill="black" stroke="#F6F5F6"/>
<path d="M93.5156 77.8727C85.4553 77.8727 77.7529 75.4848 71.1946 70.9382L73.0355 68.4237C79.0612 72.5853 86.1388 74.7727 93.5156 74.7727C113.257 74.7727 129.344 58.9137 129.344 39.4227C129.344 19.9316 113.257 4.07266 93.5156 4.07266C79.2511 4.07266 66.4216 12.3572 60.7108 25.2004L57.8097 23.9872C64.0267 9.98515 77.9851 0.972656 93.5156 0.972656C115.025 0.972656 132.5 18.2212 132.5 39.4227C132.5 60.6241 115.025 77.8727 93.5156 77.8727Z" fill="black" stroke="#F6F5F6"/>
</g>
</g>
<defs>
<clipPath id="clip0">
<rect width="133" height="123" fill="white" transform="translate(0 0.472656)"/>
</clipPath>
</defs>
</svg>

<svg width="133" height="124" fill="none" xmlns="http://www.w3.org/2000/svg"><g opacity=".8" fill="#000" stroke="#F6F5F6" clip-path="url(#clip0)"><path d="M.5 122.971v-3.1h132v3.1H.5z"/><path d="M35.828 120.924v-95.35h3.156v95.35h-3.156z"/><path d="M17.126 61.474c.047-11.956 1.79-20.912 5.15-26.883 3.386-6.014 8.418-9.017 15.13-9.017 6.712 0 11.745 3.003 15.13 9.017 3.36 5.97 5.103 14.927 5.15 26.883H54.53c-.04-10.813-1.403-18.943-4.173-24.405-1.41-2.781-3.193-4.886-5.364-6.294-2.175-1.41-4.708-2.1-7.587-2.1-2.878 0-5.412.69-7.586 2.1-2.172 1.408-3.954 3.513-5.365 6.294-2.77 5.462-4.132 13.592-4.173 24.405h-3.156z"/><path d="M3.72 59.893l-.034.531h67.44l-.033-.531C69.995 42.487 55.31 28.674 37.406 28.674c-17.903 0-32.589 13.813-33.686 31.219zm69.014 3.631H2.078c-.873 0-1.578-.705-1.578-1.55 0-20.053 16.54-36.4 36.906-36.4s36.907 16.347 36.907 36.4c0 .845-.705 1.55-1.579 1.55zm30.224 44.506l12.102 11.939-2.238 2.208-11.494-11.358-.147-.145H48.296v-3.1h53.532c.422 0 .82.169 1.13.456z"/><path d="M49.269 122.166l-2.227-2.197 11.764-11.605 2.227 2.197-11.764 11.605zm17.847-12.287l-17.994-17.75 2.227-2.197 17.994 17.751-2.227 2.196z"/><path d="M82.176 99.827l7.947 7.839-2.239 2.208-7.338-7.258-.146-.145H60.765v-3.1h20.282c.422 0 .82.169 1.13.456zm5.605-78.35c7.685.127 11.65 3.179 13.653 5.748l.394.506.395-.506c2.002-2.57 5.967-5.621 13.652-5.748v3.1c-5.09.098-8.189 1.686-10.037 3.359-1.845 1.67-2.404 3.393-2.478 3.693a1.61 1.61 0 01-1.532 1.144h-.021a1.56 1.56 0 01-1.509-1.158c-.059-.24-.604-1.985-2.48-3.682-1.848-1.67-4.947-3.258-10.037-3.356v-3.1z"/><path d="M100.25 32.773v-1.05h3.156v1.05h-3.156z"/><path d="M93.516 77.873c-8.06 0-15.763-2.388-22.321-6.935l1.84-2.514c6.026 4.161 13.104 6.349 20.48 6.349 19.742 0 35.829-15.86 35.829-35.35 0-19.491-16.087-35.35-35.828-35.35-14.265 0-27.094 8.284-32.805 21.127l-2.901-1.213C64.027 9.985 77.985.973 93.516.973c21.509 0 38.984 17.248 38.984 38.45 0 21.201-17.475 38.45-38.984 38.45z"/></g><defs><clipPath id="clip0"><path fill="#fff" transform="translate(0 .473)" d="M0 0h133v123H0z"/></clipPath></defs></svg>
